build/img/sprites/BookOpenText.svg

<svg width="54" height="54" viewBox="0 0 54 54" fill="none" xmlns="http://www.w3.org/2000/svg">
<path d="M48.9375 10.125H33.75C32.4401 10.125 31.1482 10.43 29.9766 11.0158C28.805 11.6016 27.7859 12.4521 27 13.5C26.2141 12.4521 25.195 11.6016 24.0234 11.0158C22.8518 10.43 21.5599 10.125 20.25 10.125H5.0625C4.61495 10.125 4.18572 10.3028 3.86926 10.6193C3.55279 10.9357 3.375 11.3649 3.375 11.8125V42.1875C3.375 42.6351 3.55279 43.0643 3.86926 43.3807C4.18572 43.6972 4.61495 43.875 5.0625 43.875H20.25C21.5927 43.875 22.8803 44.4084 23.8297 45.3578C24.7791 46.3072 25.3125 47.5948 25.3125 48.9375C25.3125 49.3851 25.4903 49.8143 25.8068 50.1307C26.1232 50.4472 26.5524 50.625 27 50.625C27.4476 50.625 27.8768 50.4472 28.1932 50.1307C28.5097 49.8143 28.6875 49.3851 28.6875 48.9375C28.6875 47.5948 29.2209 46.3072 30.1703 45.3578C31.1197 44.4084 32.4073 43.875 33.75 43.875H48.9375C49.3851 43.875 49.8143 43.6972 50.1307 43.3807C50.4472 43.0643 50.625 42.6351 50.625 42.1875V11.8125C50.625 11.3649 50.4472 10.9357 50.1307 10.6193C49.8143 10.3028 49.3851 10.125 48.9375 10.125ZM20.25 40.5H6.75V13.5H20.25C21.5927 13.5 22.8803 14.0334 23.8297 14.9828C24.7791 15.9322 25.3125 17.2198 25.3125 18.5625V42.1875C23.8534 41.0895 22.0761 40.4971 20.25 40.5ZM47.25 40.5H33.75C31.9239 40.4971 30.1466 41.0895 28.6875 42.1875V18.5625C28.6875 17.2198 29.2209 15.9322 30.1703 14.9828C31.1197 14.0334 32.4073 13.5 33.75 13.5H47.25V40.5ZM33.75 18.5625H42.1875C42.6351 18.5625 43.0643 18.7403 43.3807 19.0568C43.6972 19.3732 43.875 19.8024 43.875 20.25C43.875 20.6976 43.6972 21.1268 43.3807 21.4432C43.0643 21.7597 42.6351 21.9375 42.1875 21.9375H33.75C33.3024 21.9375 32.8732 21.7597 32.5568 21.4432C32.2403 21.1268 32.0625 20.6976 32.0625 20.25C32.0625 19.8024 32.2403 19.3732 32.5568 19.0568C32.8732 18.7403 33.3024 18.5625 33.75 18.5625ZM43.875 27C43.875 27.4476 43.6972 27.8768 43.3807 28.1932C43.0643 28.5097 42.6351 28.6875 42.1875 28.6875H33.75C33.3024 28.6875 32.8732 28.5097 32.5568 28.1932C32.2403 27.8768 32.0625 27.4476 32.0625 27C32.0625 26.5524 32.2403 26.1232 32.5568 25.8068C32.8732 25.4903 33.3024 25.3125 33.75 25.3125H42.1875C42.6351 25.3125 43.0643 25.4903 43.3807 25.8068C43.6972 26.1232 43.875 26.5524 43.875 27ZM43.875 33.75C43.875 34.1976 43.6972 34.6268 43.3807 34.9432C43.0643 35.2597 42.6351 35.4375 42.1875 35.4375H33.75C33.3024 35.4375 32.8732 35.2597 32.5568 34.9432C32.2403 34.6268 32.0625 34.1976 32.0625 33.75C32.0625 33.3024 32.2403 32.8732 32.5568 32.5568C32.8732 32.2403 33.3024 32.0625 33.75 32.0625H42.1875C42.6351 32.0625 43.0643 32.2403 43.3807 32.5568C43.6972 32.8732 43.875 33.3024 43.875 33.75Z" fill="#78213A"/>
</svg>

<svg width="54" height="54" viewBox="0 0 54 54" fill="none" xmlns="http://www.w3.org/2000/svg"><path d="M48.938 10.125H33.75A8.438 8.438 0 0027 13.5a8.437 8.437 0 00-6.75-3.375H5.062a1.687 1.687 0 00-1.687 1.688v30.374a1.687 1.687 0 001.688 1.688H20.25a5.062 5.062 0 015.063 5.063 1.687 1.687 0 103.375 0 5.062 5.062 0 015.062-5.063h15.188a1.687 1.687 0 001.687-1.688V11.814a1.687 1.687 0 00-1.688-1.688zM20.25 40.5H6.75v-27h13.5a5.062 5.062 0 015.063 5.063v23.625A8.397 8.397 0 0020.25 40.5zm27 0h-13.5a8.397 8.397 0 00-5.063 1.688V18.561A5.062 5.062 0 0133.75 13.5h13.5v27zm-13.5-21.938h8.438a1.687 1.687 0 110 3.375H33.75a1.687 1.687 0 110-3.375zM43.875 27a1.687 1.687 0 01-1.688 1.688H33.75a1.687 1.687 0 110-3.375h8.438A1.687 1.687 0 0143.874 27zm0 6.75a1.687 1.687 0 01-1.688 1.688H33.75a1.687 1.687 0 110-3.376h8.438a1.687 1.687 0 011.687 1.688z" fill="#78213A"/></svg>
